X:1
T:O sacrum convivium - Tallis
T:James Gibb editions
T:#
%%score [ 1 { 2 | 3 } 4 5 ]
L:1/8
Q:1/4=90
M:2/2
K:C
V:1 treble nm="Soprano" snm="S"
V:2 treble nm="Alto 1" snm="A"
V:3 treble 
V:4 treble-8 nm="Tenor" snm="T"
V:5 bass nm="Bass" snm="B"
V:1
"^O sacrum convivium""^Vespers antiphon\nfor Corpus Christi" z8 | z4 z2 E2 | A2 AA c4- | %3
w: |O|sa- crum con- vi\-|
 c2 B2"^Thomas Tallis\n(c.1505-85)" B2 c2- |[M:2/2] c(B A2) A2 ^G2 | A6 E2 | E4 z2 E2 | A2 AA c4- | %8
w: * vi- um, O|* sa\- * crum con-|vi- vi-|um, O|sa- crum con- vi-|
 c2 B2 B2 G2 | A2 c2- c (BA)(G | FE A4) ^G2 | A8 | z2 A2 E3"^*" F | G2 G2 (D3 E | F2) F2 E4 | z8 | %16
w: * vi- um, in|quo Chri\- * stus * su\-|* * * mi-|tur,|re- co- li-|tur me- mo\- *|* ri- a,||
 z4 z2 A2 | G3 A B2 B2 | (A3 B c2) c2 | B4 z4 | z2 AA (G3 A | B2) B2 (A3 B | c4) B2 cc | c2 B4 A2 | %24
w: re-|co- li- tur me-|mo\- * * ri-|a|pas- si- o\- *|* nis e\- *|* ius, pas- si-|o- nis e-|
 B8 | z2 G4 G2 | (c3 B A2) G2 | F2 (D2 G4 | A2 B2) c4 | z2 A4 A2 | d3 d c4 | (B2 c3 B A2 | %32
w: ius,|mens im-|ple- * * tur|gra- ti- *|* * a,|mens im-|ple- tur gra-|ti\- * * *|
 G3 ^F E2) A2 | z2 AA B2 B2 | c4 (BA A2- | A2 ^G2) A2 z2 | z4 z2 BB | c4 d4 | (e4 d2 c2- | %39
w: * * * a,|et fu- tu- rae|glo- ri\- * *|* * ae|no- bis|pi- gnus|da\- * *|
 c2 B3 A c2) | B4 z2 BB | c4 d4 | e4 B4 | e3 (d c2) B2- | B2 A4 (^G2 | A4 E2 A2) | %46
w: |tur, no- bis|pi- gnus|da- tur,|no- bis * pi\-|* gnus da\-||
[M:2/2] (G3 ^F E2) A2 | z2 AA B2 B2 | c4 (BA A2- | A2 ^G2) A2 z2 | z4 z2 BB | c4 d4 | (e4 d2 c2- | %53
w: * * * tur,|et fu- tu- rae|glo- ri\- * *|* * ae|no- bis|pi- gnus|da\- * *|
 c2 B3 A c2) | B4 z2 BB | c4 d4 | e4 B4 | e3 (d c2) B2- | B2 A4 ^G2 | A8- | A8 | !fermata!A8 |] %62
w: |tur, no- bis|pi- gnus|da- tur,|no- bis * pi\-|* gnus da-|tur.|||
V:2
 A,4 E2 EE | G3 G F2 E2 | E3 D (CB, A,2) | z2 B,2 B,2 G,2 |[M:2/2] C2 D2 B,2 E2- | E2 A,2 E2 EE | %6
w: O sa- crum con-|vi- vi- um, con-|vi- vi- um * *|O sa- crum|con- vi- vi- um,|* O sa- crum con-|
 G3 G F2 E2 | E3 D C(B, A,2) | z2 B,4 B,2 | C2 (A,B, CD E2) | (D3 C B,2) B,2 | A,8 | z8 | %13
w: vi- vi- um, con-|vi- vi- * um, *|in quo|Chri- stus * * * *|su\- * * mi-|tur,||
 z2 E2 B,3 C | D2 D2 (C3 D | E2) E2 D (CD)(E | F2) F2 E4 | z2 CC B,2 B,2 | C2 A,2 z2 E2 | %19
w: re- co- li-|tur me- mo\- *|* ri- a, me\- * mo\-|* ri- a|pas- si- o- nis|e- ius, re-|
 B,3 C D2 D2 | (C3 D E2) E2 | D3 E F2 F2 | (EDEF G2) G2 | F2 D2 z4 | z2 D4 D2 | (G3 F E2) C2 | %26
w: co- li- tur me-|mo\- * * ri-|a pas\- * si-|o\- * * * * nis|e- ius,|mens im-|ple\- * * tur|
 (E4 A,2 C2- | C2) B,2 C4 | z2 E4 E2 | (A3 G ^F2) E2 | D2 (B,2 CDE=F | G2 FE- ED/C/ D2) | E8 | D8 | %34
w: gra\- * *|* ti- a,|mens im-|ple\- * * tur|gra- ti\- * * * *||a,|gra-|
 C4 =C2 A,A, | B,2 B,2 C4 | (B,2 A,3 G, G2 | ^F2 E2) D2 DD | G2 E2 (A4 | G3) F E4 | z4 z2 EE | %41
w: ti- a, et fu-|tu- rae glo-|ri- * * *|* * ae, no- bis|pi- gnus da\-|* tur, *|no- bis|
 A2 G2 F4 | E2 G4 D2 | (G3 F E2) D2 | (C4 B,4 | A,2 E4 D2) |[M:2/2] E8 | D6 D2 | C4 D2 A,A, | %49
w: pi- gnus da-|tur, no- bis|pi\- * * gnus|da\- *||tur,|pi- gnus|da- tur, et fu-|
 B,2 B,2 C4 | (B,2 A,3 G, G2 | ^F2 E2) D2 DD | G2 E2 (A4 | G3) F E4 | z4 z2 EE | A2 G2 F4 | %56
w: tu- rae glo-|ri\- * * *|* * ae, no- bis|pi- gnus da\-|* tur, *|no- bis|pi- gnus da-|
 E2 G4 D2 | (G3 F E2) D2 | (C4 B,4) | A,2 =CC F2 E2 | (D2 ^C2 D4- | D2 ^CB,) !fermata!C4 |] %62
w: tur, no- bis|pi\- * * gnus|da\- *|tur, no- bis pi- gnus|da\- * *|* * * tur.|
V:3
 z8 | z8 | A,4 E2 EE | G3 (F ED E2 |[M:2/2] F3 (D E2) B,2 | C3 B, A,4 | G,4) C4 | z2 A,2 E2 EE | %8
w: ||O sa- crum con-|vi- vi\- * * *|* um, * con-|vi- vi\- *|* um,|O sa- crum con-|
 G3 (F ED E2 | F2 CD) E2 CC | F2 F2 E3 D | ^C4 z2 E2 | A,3 B, =C2 C2 | B,2 (G,3 A, B,2) | %14
w: vi- vi\- * * *|* * * um, in quo|Chri- stus su- mi-|tur, re-|co- li- tur me-|mo- ri\- * *|
 A,4 z2 A,2 | (G,3 A, B,2) B,2 | A,2 D2 C3 D | E2 E2 D3 E | F2 F2 E2 C2 | G2 G2 (FEFG | A4) z4 | %21
w: a, me-|mo\- * * ri-|a, re- co- li-|tur me- mo\- *|* ri- a, me-|mo- ri- a * * *||
 z4 z2 DD | (C3 D E4) | C2 (G2 E2 ^F2) | G8 | z8 | z2 C4 C2 | F2 F2 (E3 D | C2) (B,2 A,B,CB, | %29
w: pas- si-|o\- * *|nis e\- * *|ius,||mens im-|ple- tur gra\- *|* ti\- * * * *|
 CDEC DCB,A,) | B,2 B,2 E2 C2 | D2 C2 A,4 | z4 z2 EE | ^F2 F2 G4 | (^FE E4 ^D2) | %35
w: |a, im- ple- tur|gra- ti- a,|et fu-|tu- rae glo-|ri\- * * *|
 E6 !courtesy!=G2- | !courtesy!=G2 F2 (E3 D | CA, A2 G2 ^F2) | E2 G2 =F3 E | D2 B,2 E2 A2- | %40
w: ae, et|* fu- tu\- *||rae glo\- * *|* ri- ae no-|
 A2 G2 F2 E2 | (DC C4 B,2) | C2 E3 (D B,2) | C2 B,2 z2 B,B, | E2 E2 E3 D | C4 B,2 A,2 | %46
w: * bis pi- gnus|da\- * * *|tur, pi- gnus *|da- tur, no- bis|pi- gnus da\- *|* * tur,|
[M:2/2] z4 z2 EE | ^F2 F2 G4 | (^FE E4 ^D2) | E6 =G2- | !courtesy!=G2 F2 E3 D | (CA, A2 G2 ^F2) | %52
w: et fu-|tu- rae glo-|ri\- * * *|ae, et|* fu- tu\- *||
 E2 G2 =F3 E | D2 B,2 E2 A2- | A2 G2 F2 E2 | (DC C4 B,2) | C2 E3 (D B,2) | C2 B,2 z2 B,B, | %58
w: rae glo\- * *|* ri- ae no\-|* bis pi- gnus|da\- * * *|tur, pi- gnus *|da- tur, no- bis|
 E2 E2 (E3 D) | ^C2 A,A, D2 =C2 | A,8 | !fermata!A,8 |] %62
w: pi- gnus da\- *|tur, no- bis pi- gnus|da-|tur.|
V:4
 z8 | E4 A2 AA | (c3 B A2) A2 | G4 z2 E2 |[M:2/2][K:treble-8] A2 AA B2 B2 | A4 z4 | E4 A2 AA | %7
w: |O sa- crum con-|vi\- * * vi-|um, O|sa- crum con- vi- vi-|um,|O sa- crum con-|
 (c3 B A2) A2 | G4 z2 E2 | A4 G2 E2 | (A2 F2 =G3) F | E8- | E4 z2 A2 | E3 F G2 G2 | F2 D2 E4- | %15
w: vi\- * * vi-|um, in|quo Chri- stus|su\- * * mi-|tur,|* re-|co- li- tur me-|mo- ri- a,|
 E4 z2 G2 | (F3 G A2) A2 | E4 z2 G2 | F3"^/" G A2 A2 | (G3 A B2) B2 | A3 (B c2) c2 | B2 B2 c2 A2 | %22
w: * me-|mo\- * * ri-|a, re-|co- li- tur me-|mo\- * * ri-|a pas\- * si-|o- nis e- ius,|
 z2 AA E2 G2 | (A2 B2 c4) | d4 z2 G2- | G2 G2 (c3 B | A2) G2 z2 (G2 | A2) F2 G2 E2- | E2 E2 (A3 G | %29
w: pas- si- o- nis|e\- * *|ius, mens|* im- ple\- *|* tur gra\-|* ti- a, mens|* im- ple\- *|
 ^F2) E2 (FE A2-) | A2 ^G2 A4 | z4 z2 AA | B2 B2 c4 | (BA A4 ^G2) | A3 (=G ^F2) F2 | E4 A2 e2 | %36
w: * tur gra\- * *|* ti- a,|et fu-|tu- rae glo-|ri\- * * *|ae, et * fu-|tu- rae glo-|
 d3 (c B2) GG | A2 A2 (B4 | E2 B2) A4 | z2 dd c2 A2 | (e3 d c2 B2 | A2 c2 F4) | G4 G4- | G2 G2 G4 | %44
w: ri- ae * no- bis|pi- gnus da\-|* * tur,|no- bis pi- gnus|da\- * * *||tur, no\-|* bis pi-|
 E3 (F G2 E2) | E2 z2 z2 AA |[M:2/2][K:treble-8] B2 B2 c4 | (BA A4 ^G2) | A3 (=G ^F2) F2 | %49
w: gnus da\- * *|tur, et fu-|tu- rae glo-|ri\- * * *|ae, et * fu-|
 E4 A2 e2 | d3 (c B2) GG | A2 A2 (B4 | E2 B2) A4 | z2 dd c2 A2 | (e3 d c2 B2 | A2 c2 F4) | G4 G4- | %57
w: tu- rae glo-|ri- ae * no- bis|pi- gnus da\-|* * tur,|no- bis pi- gnus|da\- * * *||tur, no\-|
 G2 G2 G4 | E3 (F G2 E2) | E4 z2 EE | F2 E2 F4 | !fermata!E8 |] %62
w: * bis pi-|gnus da\- * *|tur, no- bis|pi- gnus da-|tur.|
V:5
 z8 | z8 | z4 A,,4 | E,2 E,E, G,4 |[M:2/2] F,4 E,2 E,2 | A,2 A,A, C4 | B,4 A,4 | z4 A,,4 | %8
w: ||O|sa- crum con- vi-|vi- um, O|sa- crum con- vi-|vi- um,|O|
 E,2 E,E, G,2 G,2 | F,3 (E, C,2) C,2 | D,2 D,2 E,2 E,2 | A,,8- | A,,4 z4 | z8 | z2 D,2 A,,3 B,, | %15
w: sa- crum con- vi- vi-|um, in * quo|Chri- stus su- mi-|tur,|||re- co- li-|
 C,2 C,2 (B,,3 C, | D,2) D,2 A,,4 | z8 | z2 D,2 C,3 D, | E,2 E,2 (D,3 E, | F,2) F,2 E,4 | %21
w: tur me- mo\- *|* ri- a,||re- co- li-|tur me- mo\- *|* ri- a|
 z2 G,G, (F,3 G, | A,2) A,2 (G,2 C,2 | F,2 G,2 A,4) | G,8 | z4 z2 C,2- | C,2 C,2 (F,3 E, | %27
w: pas- si- o\- *|* nis e\- *||ius,|mens|* im- ple\- *|
 D,2) D,2 C,3 (B,, | A,,2) E,2 z2 A,,2- | A,,2 A,,2 (D,3 C, | B,,4 A,,2 A,2 | (G,2 A,2 F,4) | %32
w: * tur gra- ti\-|* a, mens|* im- ple\- *|* tur gra-|ti\- * *|
 E,3 D, C,2) C,2 | D,3 C, B,,2 B,,2 | A,,4 z4 | z4 z2 C,C, | D,2 D,2 E,2 E,2 | A,,4 z4 | %38
w: a, et * fu-|tu- rae glo- ri-|ae,|et fu-|tu- rae glo- ri-|ae|
 z2 E,E, F,4 | G,4 A,4 | E,4 A,3 G, | F,2 E,2 (D,4 | C,3 D, E,F, G,2) | C,2 G,,G,, C,2 G,,2 | %44
w: no- bis pi-|gnus da-|tur, no- bis|pi- gnus da\-||tur, no- bis pi- gnus|
 (A,,B,,C,D, E,4 | A,,2 A,2 G,2 F,2) |[M:2/2] E,3 (D, C,2) C,2 | D,3 C, B,,2 B,,2 | A,,4 z4 | %49
w: da\- * * * *||tur, et * fu-|tu- rae glo- ri-|ae,|
 z4 z2 C,C, | D,2 D,2 E,2 E,2 | A,,4 z4 | z2 E,E, F,4 | G,4 A,4 | E,4 A,3 G, | F,2 E,2 (D,4 | %56
w: et fu-|tu- rae glo- ri-|ae|no- bis pi-|gnus da-|tur, no- bis|pi- gnus da\-|
 C,3 D, E,F, G,2) | C,2 G,,G,, C,2 G,,2 | (A,,B,,C,D, E,4) | A,,4 z2 A,,A,, | D,2 A,,2 D,4 | %61
w: |tur, no- bis pi- gnus|da\- * * * *|tur, no- bis|pi- gnus da-|
 !fermata!A,,8 |] %62
w: tur.|

